<?xml version="1.0" encoding="UTF-8"?>
<map version="1.10" tiledversion="1.12.2" orientation="orthogonal" renderorder="right-down" width="20" height="16" tilewidth="32" tileheight="32" infinite="0" nextlayerid="11" nextobjectid="38">
 <editorsettings>
  <export target="level4.tmj" format="json"/>
 </editorsettings>
 <tileset firstgid="1" name="tiles" tilewidth="32" tileheight="32" tilecount="24" columns="0">
  <grid orientation="orthogonal" width="256" height="256"/>
  <tile id="2">
   <image source="../assets/wall.png" width="32" height="32"/>
  </tile>
  <tile id="3">
   <image source="../assets/wall2.png" width="32" height="32"/>
  </tile>
  <tile id="4">
   <image source="../assets/wallwithglyphs1.png" width="32" height="32"/>
  </tile>
  <tile id="5">
   <image source="../assets/wallsnake.png" width="32" height="32"/>
  </tile>
  <tile id="6">
   <image source="../assets/walltorch.png" width="32" height="32"/>
  </tile>
  <tile id="7">
   <image source="../assets/wallwithglyphs2.png" width="32" height="32"/>
  </tile>
  <tile id="8">
   <image source="../assets/wallcracked2.png" width="32" height="32"/>
  </tile>
  <tile id="9">
   <image source="../assets/chest.png" width="32" height="32"/>
  </tile>
  <tile id="10">
   <image source="../assets/column1.png" width="32" height="32"/>
  </tile>
  <tile id="11">
   <image source="../assets/column2.png" width="32" height="32"/>
  </tile>
  <tile id="12">
   <image source="../assets/sphinxstatuefaceeast.png" width="32" height="32"/>
  </tile>
  <tile id="13">
   <image source="../assets/sphinxstatuefacewest.png" width="32" height="32"/>
  </tile>
  <tile id="14">
   <image source="../assets/vase1.png" width="32" height="32"/>
  </tile>
  <tile id="15">
   <image source="../assets/wallcracked1.png" width="32" height="32"/>
  </tile>
  <tile id="16">
   <image source="../assets/vase2.png" width="32" height="32"/>
  </tile>
  <tile id="17">
   <image source="../assets/sand.png" width="32" height="32"/>
  </tile>
  <tile id="21">
   <image source="../assets/archnorth.png" width="32" height="32"/>
  </tile>
  <tile id="23">
   <image source="../assets/bones1.png" width="32" height="32"/>
  </tile>
  <tile id="24">
   <image source="../assets/pavedfloortile.png" width="32" height="32"/>
  </tile>
  <tile id="25">
   <image source="../assets/skull1.png" width="32" height="32"/>
  </tile>
  <tile id="26">
   <image source="../assets/skull2.png" width="32" height="32"/>
  </tile>
  <tile id="27">
   <image source="../assets/stairsdown.png" width="32" height="32"/>
  </tile>
  <tile id="28">
   <image source="../assets/stairsup.png" width="32" height="32"/>
  </tile>
  <tile id="31">
   <image source="../assets/dummy.png" width="32" height="32"/>
  </tile>
 </tileset>
 <tileset firstgid="33" source="tiles.tsx"/>
 <layer id="1" name="floor" width="20" height="16">
  <data encoding="csv">
25,25,25,25,25,25,25,25,25,25,25,25,25,25,25,25,25,25,25,25,
25,25,25,25,25,25,25,25,25,25,25,25,25,25,25,25,25,25,25,25,
25,25,25,25,25,25,25,25,25,25,25,25,25,25,25,25,25,25,25,25,
25,25,25,25,25,25,25,25,25,25,25,25,25,25,25,25,25,25,25,25,
25,25,25,25,25,25,25,25,25,25,25,25,25,25,25,25,25,25,25,25,
25,25,25,25,25,25,25,25,25,25,25,25,25,25,25,25,25,25,25,25,
25,25,25,25,25,25,25,25,25,25,25,25,25,25,25,25,25,25,25,25,
25,25,25,25,25,25,25,25,25,25,25,25,25,25,25,25,25,25,25,25,
25,25,25,25,25,25,25,25,25,25,25,25,25,25,25,25,25,25,25,25,
25,25,25,25,25,25,25,25,25,25,25,25,25,25,25,25,25,25,25,25,
25,25,25,25,25,25,25,25,25,25,25,25,25,25,25,25,25,25,25,25,
25,25,25,25,25,25,25,25,25,25,25,25,25,25,25,25,25,25,25,25,
25,25,25,25,25,25,25,25,25,25,25,25,25,25,25,25,25,25,25,25,
25,25,25,25,25,25,25,25,25,25,25,25,25,25,25,25,25,25,25,25,
25,25,25,25,25,25,25,25,25,25,25,25,25,25,25,25,25,25,25,25,
25,25,25,25,25,25,25,25,25,25,25,25,25,25,25,25,25,25,25,25
</data>
 </layer>
 <layer id="3" name="doors" width="20" height="16">
  <data encoding="csv">
0,0,0,0,0,0,0,0,0,0,0,0,0,0,0,0,0,0,0,0,
0,0,0,0,0,0,0,0,0,0,0,0,0,0,0,0,0,0,0,0,
0,0,0,0,0,0,0,0,0,0,0,0,0,0,0,0,0,0,0,0,
0,0,0,0,0,0,0,0,0,0,0,0,0,0,0,0,0,0,0,0,
0,0,0,0,0,0,0,0,0,0,0,0,0,0,0,0,0,0,0,0,
0,0,0,0,0,0,0,0,0,0,0,0,0,0,0,0,0,0,0,0,
0,0,0,0,0,0,0,0,0,0,0,0,0,0,0,0,0,0,0,0,
0,0,0,0,0,0,0,0,22,0,0,0,0,0,0,0,0,0,0,0,
0,0,0,0,0,0,0,0,0,0,0,0,0,0,22,0,0,0,0,0,
0,0,0,0,0,0,0,0,0,0,0,0,0,0,0,0,0,0,0,0,
0,0,0,0,0,0,0,0,0,0,0,0,0,0,0,0,0,0,0,0,
0,0,0,0,0,0,0,0,0,0,0,0,0,0,0,0,0,0,0,0,
0,0,0,0,0,0,0,0,0,0,0,0,0,0,0,0,0,0,0,0,
0,0,0,0,0,0,0,0,0,0,0,0,0,0,0,0,0,0,0,0,
0,0,0,0,0,0,0,0,0,0,0,0,0,0,0,0,0,0,0,0,
0,0,0,0,0,0,0,0,0,0,0,0,0,0,0,0,0,0,0,0
</data>
 </layer>
 <layer id="2" name="walls" width="20" height="16">
  <data encoding="csv">
3,9,9,0,0,0,0,0,0,0,0,0,0,0,0,0,0,0,0,3,
3,3,16,0,3,3,3,3,3,9,16,16,3,3,3,3,3,0,0,3,
3,0,3,0,3,0,0,0,0,0,0,0,0,0,0,0,3,0,0,3,
3,0,3,0,3,0,3,3,3,3,3,3,3,3,3,0,3,0,0,3,
3,0,3,0,3,0,16,0,0,0,0,0,0,0,3,0,3,0,0,3,
3,0,3,0,16,0,16,0,7,5,6,5,7,0,3,0,3,0,0,16,
3,0,3,0,16,0,9,0,3,0,0,0,3,0,3,0,3,0,0,9,
3,0,3,0,3,0,3,0,0,0,0,0,3,0,3,0,16,0,0,9,
3,0,3,0,3,0,3,0,3,0,0,0,3,0,0,0,3,0,0,3,
3,0,0,0,3,0,3,0,3,3,3,3,3,0,3,0,3,0,0,0,
3,0,0,9,3,0,3,0,0,0,0,0,0,0,3,0,9,0,0,3,
3,0,0,9,0,0,3,3,3,3,3,3,3,3,3,0,16,0,0,3,
3,0,0,16,0,0,0,0,0,0,0,0,0,0,0,0,3,0,0,3,
3,0,3,3,0,0,3,3,9,3,3,16,16,3,3,3,3,0,0,3,
3,0,0,0,0,3,3,0,0,0,0,0,0,0,0,0,0,0,0,3,
3,9,9,3,3,3,3,9,9,3,3,3,3,3,9,3,3,9,3,3
</data>
 </layer>
 <layer id="4" name="solid_decorations" width="20" height="16">
  <data encoding="csv">
0,0,0,0,0,0,0,0,0,0,0,0,0,0,0,0,0,0,0,0,
0,0,0,0,0,0,0,0,0,0,0,0,0,0,0,0,0,0,0,0,
0,0,0,0,0,0,0,0,0,0,0,0,0,0,0,0,0,0,0,0,
0,0,0,0,0,0,0,0,0,0,0,0,0,0,0,0,0,0,0,0,
0,0,0,0,0,0,0,0,0,0,0,0,0,0,0,0,0,0,0,0,
0,0,0,0,0,0,0,0,0,0,0,0,0,0,0,0,0,0,0,0,
0,0,0,0,0,0,0,0,0,0,0,0,0,0,0,0,0,0,0,0,
0,0,0,0,0,0,0,0,0,0,0,0,0,0,0,0,0,0,0,0,
0,0,0,0,0,0,0,0,0,0,0,0,0,0,0,0,0,0,0,0,
0,0,0,0,0,0,0,0,0,0,0,0,0,0,0,0,0,0,0,0,
0,0,0,0,0,0,0,0,0,0,0,0,0,0,0,0,0,0,0,0,
0,0,0,0,0,0,0,0,0,0,0,0,0,0,0,0,0,0,0,0,
0,0,0,0,0,0,0,0,0,0,0,0,0,0,0,0,0,0,0,0,
0,0,0,0,0,0,0,0,0,0,0,0,0,0,0,0,0,0,0,0,
0,0,0,0,0,0,0,0,0,0,0,0,0,0,0,0,0,0,0,0,
0,0,0,0,0,0,0,0,0,0,0,0,0,0,0,0,0,0,0,0
</data>
 </layer>
 <layer id="9" name="stairs" width="20" height="16">
  <data encoding="csv">
0,0,0,0,0,0,0,0,0,0,0,0,0,0,0,0,0,0,0,0,
0,0,0,0,0,0,0,0,0,0,0,0,0,0,0,0,0,0,0,0,
0,0,0,0,0,0,0,0,0,0,0,0,0,0,0,0,0,0,0,0,
0,0,0,0,0,0,0,0,0,0,0,0,0,0,0,0,0,0,0,0,
0,0,0,0,0,0,0,0,0,0,0,0,0,0,0,0,0,0,0,0,
0,0,0,0,0,0,0,0,0,0,0,0,0,0,0,0,0,0,0,0,
0,0,0,0,0,0,0,0,0,0,0,0,0,0,0,0,0,0,0,0,
0,0,0,0,0,0,0,0,0,0,29,0,0,0,0,0,0,0,0,0,
0,0,0,0,0,0,0,0,0,0,0,0,0,0,0,0,0,0,0,0,
0,0,0,0,0,0,0,0,0,0,0,0,0,0,0,0,0,0,0,0,
0,0,0,0,0,0,0,0,0,0,0,0,0,0,0,0,0,0,0,0,
0,0,0,0,0,0,0,0,0,0,0,0,0,0,0,0,0,0,0,0,
0,0,0,0,0,0,0,0,0,0,0,0,0,0,0,0,0,0,0,0,
0,0,0,0,0,0,0,0,0,0,0,0,0,0,0,0,0,0,0,0,
0,0,0,0,0,0,0,28,0,0,0,0,0,0,0,0,0,0,0,0,
0,0,0,0,0,0,0,0,0,0,0,0,0,0,0,0,0,0,0,0
</data>
 </layer>
 <layer id="8" name="passable_decorations" width="20" height="16">
  <data encoding="csv">
0,0,0,0,0,0,0,0,0,0,0,0,0,0,0,0,0,0,0,0,
0,0,0,0,0,0,0,0,0,0,0,0,0,0,0,0,0,0,0,0,
0,27,0,0,0,0,0,0,0,0,0,0,0,0,0,0,0,0,0,0,
0,24,0,0,0,0,0,0,0,0,0,0,0,0,0,0,0,0,0,0,
0,0,0,0,0,0,0,0,0,0,0,0,24,0,0,0,0,0,0,0,
0,0,0,0,0,0,0,0,0,0,0,0,0,0,0,0,0,0,0,0,
0,0,0,0,0,0,0,0,0,0,0,0,0,0,0,0,0,0,0,0,
0,0,0,0,0,0,0,0,0,0,0,0,0,27,0,0,0,0,0,0,
0,0,0,0,0,0,0,0,0,0,0,0,0,0,0,0,0,0,0,0,
0,0,0,0,0,0,0,0,0,0,0,0,0,0,0,0,0,0,0,0,
0,0,0,0,0,0,0,0,0,0,0,0,0,0,0,0,0,0,0,0,
0,0,0,0,0,0,0,0,0,0,0,0,0,0,0,0,0,0,0,0,
0,0,0,0,0,0,0,0,0,0,0,0,0,0,0,0,0,0,0,0,
0,0,0,0,0,0,0,0,0,0,0,0,0,0,0,0,0,27,0,0,
0,0,0,0,0,0,0,0,0,0,0,0,0,0,0,0,0,24,24,0,
0,0,0,0,0,0,0,0,0,0,0,0,0,0,0,0,0,0,0,0
</data>
 </layer>
 <layer id="10" name="chests" width="20" height="16">
  <data encoding="csv">
0,0,0,0,0,0,0,0,0,0,0,0,0,0,0,0,0,0,10,0,
0,0,0,0,0,0,0,0,0,0,0,0,0,0,0,0,0,0,0,0,
0,0,0,0,0,0,0,0,0,0,0,0,0,0,0,0,0,0,0,0,
0,0,0,0,0,0,0,0,0,0,0,0,0,0,0,0,0,0,0,0,
0,0,0,0,0,0,0,0,0,0,0,0,0,0,0,0,0,0,0,0,
0,0,0,0,0,0,0,0,0,0,0,0,0,0,0,0,0,0,0,0,
0,0,0,0,0,0,0,0,0,0,0,0,0,0,0,0,0,0,0,0,
0,0,0,0,0,0,0,0,0,0,0,0,0,0,0,0,0,0,0,0,
0,0,0,0,0,0,0,0,0,0,0,0,0,0,0,0,0,0,0,0,
0,0,0,0,0,0,0,0,0,0,0,0,0,0,0,0,0,0,0,15,
0,0,0,0,0,0,0,0,0,0,0,0,0,0,0,0,0,0,0,0,
0,0,0,0,0,0,0,0,0,0,0,0,0,0,0,0,0,0,0,0,
0,0,0,0,0,0,0,0,0,0,0,0,0,0,0,0,0,0,0,0,
0,0,0,0,0,0,0,0,0,0,0,0,0,0,0,0,0,0,0,0,
0,0,0,0,0,0,0,0,0,0,0,0,0,0,0,0,0,0,0,0,
0,0,0,0,0,0,0,0,0,0,0,0,0,0,0,0,0,0,0,0
</data>
 </layer>
 <objectgroup id="5" name="objects">
  <object id="37" name="bronze_armour" x="625.123" y="308.322">
   <point/>
  </object>
 </objectgroup>
 <objectgroup id="6" name="player_spawn">
  <object id="1" name="player_spawn" x="303.355" y="247.32">
   <point/>
  </object>
 </objectgroup>
 <objectgroup id="7" name="npc_spawn">
  <object id="26" name="mummy" x="335.3" y="340.696">
   <point/>
  </object>
  <object id="27" name="anubis_guard_light" x="335.3" y="403.902">
   <point/>
  </object>
  <object id="28" name="anubis_guard_light" x="144.141" y="397.736">
   <point/>
  </object>
  <object id="29" name="anubis_guard_light" x="144.911" y="438.588">
   <point/>
  </object>
  <object id="31" name="anubis_guard_dark" x="589.666" y="176.515">
   <point/>
  </object>
  <object id="33" name="anubis_guard_dark" x="561.917" y="340.696">
   <point/>
  </object>
  <object id="34" name="anubis_guard_dark" x="400.048" y="468.65">
   <point/>
  </object>
  <object id="35" name="mummy" x="175.744" y="222.763">
   <point/>
  </object>
  <object id="36" name="mummy" x="588.125" y="272.094">
   <point/>
  </object>
 </objectgroup>
</map>
