<?xml version="1.0" encoding="UTF-8"?>
<map version="1.10" tiledversion="1.12.2" orientation="orthogonal" renderorder="right-down" width="20" height="16" tilewidth="32" tileheight="32" infinite="0" nextlayerid="11" nextobjectid="28">
 <editorsettings>
  <export target="level3.tmj" format="json"/>
 </editorsettings>
 <tileset firstgid="1" name="tiles" tilewidth="32" tileheight="32" tilecount="24" columns="0">
  <grid orientation="orthogonal" width="256" height="256"/>
  <tile id="2">
   <image source="../assets/wall.png" width="32" height="32"/>
  </tile>
  <tile id="3">
   <image source="../assets/wall2.png" width="32" height="32"/>
  </tile>
  <tile id="4">
   <image source="../assets/wallwithglyphs1.png" width="32" height="32"/>
  </tile>
  <tile id="5">
   <image source="../assets/wallsnake.png" width="32" height="32"/>
  </tile>
  <tile id="6">
   <image source="../assets/walltorch.png" width="32" height="32"/>
  </tile>
  <tile id="7">
   <image source="../assets/wallwithglyphs2.png" width="32" height="32"/>
  </tile>
  <tile id="8">
   <image source="../assets/wallcracked2.png" width="32" height="32"/>
  </tile>
  <tile id="9">
   <image source="../assets/chest.png" width="32" height="32"/>
  </tile>
  <tile id="10">
   <image source="../assets/column1.png" width="32" height="32"/>
  </tile>
  <tile id="11">
   <image source="../assets/column2.png" width="32" height="32"/>
  </tile>
  <tile id="12">
   <image source="../assets/sphinxstatuefaceeast.png" width="32" height="32"/>
  </tile>
  <tile id="13">
   <image source="../assets/sphinxstatuefacewest.png" width="32" height="32"/>
  </tile>
  <tile id="14">
   <image source="../assets/vase1.png" width="32" height="32"/>
  </tile>
  <tile id="15">
   <image source="../assets/wallcracked1.png" width="32" height="32"/>
  </tile>
  <tile id="16">
   <image source="../assets/vase2.png" width="32" height="32"/>
  </tile>
  <tile id="17">
   <image source="../assets/sand.png" width="32" height="32"/>
  </tile>
  <tile id="21">
   <image source="../assets/archnorth.png" width="32" height="32"/>
  </tile>
  <tile id="23">
   <image source="../assets/bones1.png" width="32" height="32"/>
  </tile>
  <tile id="24">
   <image source="../assets/pavedfloortile.png" width="32" height="32"/>
  </tile>
  <tile id="25">
   <image source="../assets/skull1.png" width="32" height="32"/>
  </tile>
  <tile id="26">
   <image source="../assets/skull2.png" width="32" height="32"/>
  </tile>
  <tile id="27">
   <image source="../assets/stairsdown.png" width="32" height="32"/>
  </tile>
  <tile id="28">
   <image source="../assets/stairsup.png" width="32" height="32"/>
  </tile>
  <tile id="31">
   <image source="../assets/dummy.png" width="32" height="32"/>
  </tile>
 </tileset>
 <tileset firstgid="33" source="tiles.tsx"/>
 <layer id="1" name="floor" width="20" height="16">
  <data encoding="csv">
0,0,0,0,0,0,0,0,0,0,0,0,0,0,0,0,0,0,0,0,
0,0,0,0,0,0,0,0,0,0,0,0,0,0,0,0,0,0,0,0,
0,0,0,0,0,0,0,0,0,0,0,0,0,0,0,0,0,0,0,0,
0,0,0,18,18,18,18,18,18,18,18,18,18,18,18,18,18,0,0,0,
0,0,0,18,18,18,18,18,18,18,18,18,18,18,18,18,18,0,0,0,
0,0,0,18,18,18,18,18,18,18,18,18,18,18,18,18,18,0,0,0,
0,0,0,18,18,18,18,18,18,18,18,18,18,18,18,18,18,0,0,0,
0,0,0,18,18,18,18,18,18,18,18,18,18,18,18,18,18,0,0,0,
0,0,0,18,18,18,18,18,18,18,18,18,18,18,18,18,18,0,0,0,
0,0,0,18,18,18,18,18,18,18,18,18,18,18,18,18,18,0,0,0,
0,0,0,18,18,18,18,18,18,18,18,18,18,18,18,18,18,0,0,0,
0,0,0,18,18,18,18,18,18,18,18,18,18,18,18,18,18,0,0,0,
0,0,0,18,18,18,18,18,18,18,18,18,18,18,18,18,18,0,0,0,
0,0,0,0,0,0,0,0,0,0,0,0,0,0,0,0,0,0,0,0,
0,0,0,0,0,0,0,0,0,0,0,0,0,0,0,0,0,0,0,0,
0,0,0,0,0,0,0,0,0,0,0,0,0,0,0,0,0,0,0,0
</data>
 </layer>
 <layer id="3" name="doors" width="20" height="16">
  <data encoding="csv">
0,0,0,0,0,0,0,0,0,0,0,0,0,0,0,0,0,0,0,0,
0,0,0,0,0,0,0,0,0,0,0,0,0,0,0,0,0,0,0,0,
0,0,0,0,0,0,0,0,0,0,0,0,0,0,0,0,0,0,0,0,
0,0,0,0,0,0,0,0,0,0,0,0,0,0,0,0,0,0,0,0,
0,0,0,0,0,0,0,0,0,0,0,0,0,0,0,0,0,0,0,0,
0,0,0,0,0,0,0,0,0,0,0,0,0,0,0,0,0,0,0,0,
0,0,0,0,0,0,0,0,0,0,0,0,0,0,0,0,0,0,0,0,
0,0,0,0,0,0,0,0,0,0,0,0,0,0,0,0,0,0,0,0,
0,0,0,0,0,0,0,0,0,0,0,0,0,0,0,0,0,0,0,0,
0,0,0,0,0,0,0,0,0,0,0,0,0,0,0,0,0,0,0,0,
0,0,0,0,0,0,0,0,0,0,0,0,0,0,0,0,0,0,0,0,
0,0,0,0,0,0,0,0,0,0,0,0,0,0,0,0,0,0,0,0,
0,0,0,0,0,0,0,0,0,0,0,0,0,0,0,0,0,0,0,0,
0,0,0,0,0,0,0,0,0,0,0,0,0,0,0,0,0,0,0,0,
0,0,0,0,0,0,0,0,0,0,0,0,0,0,0,0,0,0,0,0,
0,0,0,0,0,0,0,0,0,0,0,0,0,0,0,0,0,0,0,0
</data>
 </layer>
 <layer id="2" name="walls" width="20" height="16">
  <data encoding="csv">
4,4,4,4,4,4,4,4,4,4,4,4,4,4,4,4,4,4,4,4,
4,4,4,4,4,4,4,4,4,4,4,4,4,4,4,4,4,4,4,4,
4,4,4,4,4,4,4,4,4,4,4,4,4,4,4,4,4,4,4,4,
4,4,4,0,0,0,0,0,0,0,0,0,0,0,0,0,0,4,4,4,
4,4,4,0,0,0,0,0,0,0,0,0,0,0,0,0,0,4,4,4,
4,4,4,0,0,0,0,0,0,0,0,0,0,0,0,0,0,4,4,4,
4,4,4,0,0,0,0,0,0,0,0,0,0,0,0,0,0,4,4,4,
4,4,4,0,0,0,0,0,0,0,0,0,0,0,0,0,0,4,4,4,
4,4,4,0,0,0,0,0,0,0,0,0,0,0,0,0,0,4,4,4,
4,4,4,0,0,0,0,0,0,0,0,0,0,0,0,0,0,4,4,4,
4,4,4,0,0,0,0,0,0,0,0,0,0,0,0,0,0,4,4,4,
4,4,4,0,0,0,0,0,0,0,0,0,0,0,0,0,0,4,4,4,
4,4,4,0,0,0,0,0,0,0,0,0,0,0,0,0,0,4,4,4,
4,4,4,4,4,4,4,4,4,4,4,4,4,4,4,4,4,4,4,4,
4,4,4,4,4,4,4,4,4,4,4,4,4,4,4,4,4,4,4,4,
4,4,4,4,4,4,4,4,4,4,4,4,4,4,4,4,4,4,4,4
</data>
 </layer>
 <layer id="4" name="solid_decorations" width="20" height="16">
  <data encoding="csv">
0,0,0,0,0,0,0,0,0,0,0,0,0,0,0,0,0,0,0,0,
0,0,0,0,0,0,0,0,0,0,0,0,0,0,0,0,0,0,0,0,
0,0,0,0,0,0,0,0,0,0,0,0,0,0,0,0,0,0,0,0,
0,0,0,0,0,0,0,0,0,0,0,0,0,0,0,0,0,0,0,0,
0,0,0,0,0,0,0,0,0,0,0,0,0,0,0,0,0,0,0,0,
0,0,0,0,0,0,0,0,0,0,0,0,0,0,0,0,0,0,0,0,
0,0,0,0,0,0,0,12,0,0,0,0,12,0,0,0,0,0,0,0,
0,0,0,0,0,0,0,0,0,0,0,0,0,0,0,0,0,0,0,0,
0,0,0,0,0,0,0,0,0,0,0,0,0,0,0,0,0,0,0,0,
0,0,0,0,0,0,0,12,0,0,0,0,12,0,0,0,0,0,0,0,
0,0,0,0,0,0,0,0,0,0,0,0,0,0,0,0,0,0,0,0,
0,0,0,0,0,0,0,0,0,0,0,0,0,0,0,0,0,0,0,0,
0,0,0,0,0,0,0,0,0,0,0,0,0,0,0,0,0,0,0,0,
0,0,0,0,0,0,0,0,0,0,0,0,0,0,0,0,0,0,0,0,
0,0,0,0,0,0,0,0,0,0,0,0,0,0,0,0,0,0,0,0,
0,0,0,0,0,0,0,0,0,0,0,0,0,0,0,0,0,0,0,0
</data>
 </layer>
 <layer id="9" name="stairs" width="20" height="16">
  <data encoding="csv">
0,0,0,0,0,0,0,0,0,0,0,0,0,0,0,0,0,0,0,0,
0,0,0,0,0,0,0,0,0,0,0,0,0,0,0,0,0,0,0,0,
0,0,0,0,0,0,0,0,0,0,0,0,0,0,0,0,0,0,0,0,
0,0,0,29,0,0,0,0,0,0,0,0,0,0,0,0,0,0,0,0,
0,0,0,0,0,0,0,0,0,0,0,0,0,0,0,0,0,0,0,0,
0,0,0,0,0,0,0,0,0,0,0,0,0,0,0,0,0,0,0,0,
0,0,0,0,0,0,0,0,0,0,0,0,0,0,0,0,0,0,0,0,
0,0,0,0,0,0,0,0,0,0,0,0,0,0,0,0,0,0,0,0,
0,0,0,0,0,0,0,0,0,0,0,0,0,0,0,0,0,0,0,0,
0,0,0,0,0,0,0,0,0,0,0,0,0,0,0,0,0,0,0,0,
0,0,0,0,0,0,0,0,0,0,0,0,0,0,0,0,0,0,0,0,
0,0,0,0,0,0,0,0,0,0,0,0,0,0,0,0,0,0,0,0,
0,0,0,0,0,0,0,0,0,0,0,0,0,0,0,0,28,0,0,0,
0,0,0,0,0,0,0,0,0,0,0,0,0,0,0,0,0,0,0,0,
0,0,0,0,0,0,0,0,0,0,0,0,0,0,0,0,0,0,0,0,
0,0,0,0,0,0,0,0,0,0,0,0,0,0,0,0,0,0,0,0
</data>
 </layer>
 <layer id="8" name="passable_decorations" width="20" height="16">
  <data encoding="csv">
0,0,0,0,0,0,0,0,0,0,0,0,0,0,0,0,0,0,0,0,
0,0,0,0,0,0,0,0,0,0,0,0,0,0,0,0,0,0,0,0,
0,0,0,0,0,0,0,0,0,0,0,0,0,0,0,0,0,0,0,0,
0,0,0,0,0,0,0,27,24,24,0,0,0,0,0,0,0,0,0,0,
0,0,0,0,0,0,0,0,0,0,0,0,0,0,27,0,0,0,0,0,
0,0,0,0,0,0,0,0,0,0,24,24,0,0,0,0,0,0,0,0,
0,0,0,0,0,24,26,0,0,26,24,0,0,0,0,24,0,0,0,0,
0,0,0,0,0,24,24,0,0,0,0,0,0,0,24,24,0,0,0,0,
0,0,0,0,27,0,0,0,0,0,0,26,0,0,0,26,0,0,0,0,
0,0,0,0,0,26,0,0,0,0,0,0,0,0,0,0,0,0,0,0,
0,0,0,0,0,0,0,0,0,0,0,0,0,0,0,0,0,0,0,0,
0,0,0,0,0,27,24,0,0,0,0,0,0,27,0,0,0,0,0,0,
0,0,0,0,0,0,0,24,26,0,0,26,0,24,24,24,0,0,0,0,
0,0,0,0,0,0,0,0,0,0,0,0,0,0,0,0,0,0,0,0,
0,0,0,0,0,0,0,0,0,0,0,0,0,0,0,0,0,0,0,0,
0,0,0,0,0,0,0,0,0,0,0,0,0,0,0,0,0,0,0,0
</data>
 </layer>
 <layer id="10" name="chests" width="20" height="16">
  <data encoding="csv">
0,0,0,0,0,0,0,0,0,0,0,0,0,0,0,0,0,0,0,0,
0,0,0,0,0,0,0,0,0,0,0,0,0,0,0,0,0,0,0,0,
0,0,0,0,0,0,0,0,0,0,0,0,0,0,0,0,0,0,0,0,
0,0,0,0,0,0,0,0,0,0,0,0,0,0,0,0,10,0,0,0,
0,0,0,0,0,0,0,0,0,0,0,0,0,0,0,0,0,0,0,0,
0,0,0,0,0,0,0,0,0,0,0,0,0,0,0,0,0,0,0,0,
0,0,0,0,0,0,0,0,0,0,0,0,0,0,0,0,0,0,0,0,
0,0,0,0,0,0,0,0,0,0,0,0,0,0,0,0,0,0,0,0,
0,0,0,0,0,0,0,0,0,0,0,0,0,0,0,0,0,0,0,0,
0,0,0,0,0,0,0,0,0,0,0,0,0,0,0,0,0,0,0,0,
0,0,0,0,0,0,0,0,0,0,0,0,0,0,0,0,0,0,0,0,
0,0,0,0,0,0,0,0,0,0,0,0,0,0,0,0,0,0,0,0,
0,0,0,0,0,0,0,0,0,0,0,0,0,0,0,0,0,0,0,0,
0,0,0,0,0,0,0,0,0,0,0,0,0,0,0,0,0,0,0,0,
0,0,0,0,0,0,0,0,0,0,0,0,0,0,0,0,0,0,0,0,
0,0,0,0,0,0,0,0,0,0,0,0,0,0,0,0,0,0,0,0
</data>
 </layer>
 <objectgroup id="5" name="objects"/>
 <objectgroup id="6" name="player_spawn">
  <object id="1" name="player_spawn" x="111.424" y="145.574">
   <point/>
  </object>
 </objectgroup>
 <objectgroup id="7" name="npc_spawn">
  <object id="22" name="rat" x="174.202" y="178.056">
   <point/>
  </object>
  <object id="23" name="mummy" x="461.713" y="120.246">
   <point/>
  </object>
  <object id="24" name="mummy" x="493.316" y="151.078">
   <point/>
  </object>
  <object id="25" name="mummy" x="525.69" y="187.306">
   <point/>
  </object>
  <object id="26" name="mummy" x="301.385" y="375.382">
   <point/>
  </object>
  <object id="27" name="anubis_guard_light" x="460.171" y="369.216">
   <point/>
  </object>
 </objectgroup>
</map>
