<?xml version="1.0" encoding="UTF-8"?>
<map version="1.10" tiledversion="1.12.2" orientation="orthogonal" renderorder="right-down" width="20" height="16" tilewidth="32" tileheight="32" infinite="0" nextlayerid="8" nextobjectid="18">
 <editorsettings>
  <export target="level1.tmj" format="json"/>
 </editorsettings>
 <tileset firstgid="1" name="tiles" tilewidth="32" tileheight="32" tilecount="26" columns="0">
  <grid orientation="orthogonal" width="256" height="256"/>
  <tile id="2">
   <image source="../assets/wall.png" width="32" height="32"/>
  </tile>
  <tile id="3">
   <image source="../assets/wall2.png" width="32" height="32"/>
  </tile>
  <tile id="4">
   <image source="../assets/wallwithglyphs1.png" width="32" height="32"/>
  </tile>
  <tile id="5">
   <image source="../assets/wallsnake.png" width="32" height="32"/>
  </tile>
  <tile id="6">
   <image source="../assets/walltorch.png" width="32" height="32"/>
  </tile>
  <tile id="7">
   <image source="../assets/wallwithglyphs2.png" width="32" height="32"/>
  </tile>
  <tile id="8">
   <image source="../assets/wallcracked2.png" width="32" height="32"/>
  </tile>
  <tile id="9">
   <image source="../assets/chest.png" width="32" height="32"/>
  </tile>
  <tile id="10">
   <image source="../assets/column1.png" width="32" height="32"/>
  </tile>
  <tile id="11">
   <image source="../assets/column2.png" width="32" height="32"/>
  </tile>
  <tile id="12">
   <image source="../assets/sphinxstatuefaceeast.png" width="32" height="32"/>
  </tile>
  <tile id="13">
   <image source="../assets/sphinxstatuefacewest.png" width="32" height="32"/>
  </tile>
  <tile id="14">
   <image source="../assets/vase1.png" width="32" height="32"/>
  </tile>
  <tile id="15">
   <image source="../assets/wallcracked1.png" width="32" height="32"/>
  </tile>
  <tile id="16">
   <image source="../assets/vase2.png" width="32" height="32"/>
  </tile>
  <tile id="17">
   <image source="../assets/sand.png" width="32" height="32"/>
  </tile>
  <tile id="19">
   <image source="../assets/archwest.png" width="32" height="32"/>
  </tile>
  <tile id="20">
   <image source="../assets/archsouth.png" width="32" height="32"/>
  </tile>
  <tile id="21">
   <image source="../assets/archnorth.png" width="32" height="32"/>
  </tile>
  <tile id="22">
   <image source="../assets/archeast.png" width="32" height="32"/>
  </tile>
  <tile id="23">
   <image source="../assets/bones1.png" width="32" height="32"/>
  </tile>
  <tile id="24">
   <image source="../assets/pavedfloortile.png" width="32" height="32"/>
  </tile>
  <tile id="25">
   <image source="../assets/skull1.png" width="32" height="32"/>
  </tile>
  <tile id="26">
   <image source="../assets/skull2.png" width="32" height="32"/>
  </tile>
  <tile id="27">
   <image source="../assets/stairsdown.png" width="32" height="32"/>
  </tile>
  <tile id="28">
   <image source="../assets/stairsup.png" width="32" height="32"/>
  </tile>
 </tileset>
 <layer id="1" name="floor" width="20" height="16">
  <data encoding="csv">
18,18,18,18,18,18,18,25,25,25,25,25,25,18,18,18,18,18,18,18,
18,18,18,18,18,18,18,25,25,25,25,25,25,18,18,18,18,18,18,18,
18,18,18,18,18,18,18,25,25,25,25,25,25,18,18,18,18,18,18,18,
18,18,18,18,18,18,18,25,25,25,25,25,25,18,18,18,18,18,18,18,
18,18,18,18,18,18,18,25,25,25,25,25,25,18,18,18,18,18,18,18,
18,18,18,18,18,18,18,25,25,25,25,25,25,18,18,18,18,18,18,18,
25,25,25,25,25,25,25,25,25,25,25,25,25,25,25,25,25,25,25,25,
25,25,25,25,25,25,25,25,25,25,25,25,25,25,25,25,25,25,25,25,
25,25,25,25,25,25,25,25,25,25,25,25,25,25,25,25,25,25,25,25,
18,18,18,25,18,18,18,25,25,25,25,25,25,18,18,18,25,18,18,18,
18,18,18,18,18,18,18,25,25,25,25,25,25,18,18,18,18,18,18,18,
18,18,18,18,18,18,18,25,25,25,25,25,25,18,18,18,18,18,18,18,
18,18,18,18,18,18,18,25,25,25,25,25,25,18,18,18,18,18,18,18,
18,18,18,18,18,18,18,25,25,25,25,25,25,18,18,18,18,18,18,18,
18,18,18,18,18,18,18,25,25,25,25,25,25,18,18,18,18,18,18,18,
18,18,18,18,18,18,18,25,25,25,25,25,25,18,18,18,18,18,18,18
</data>
 </layer>
 <layer id="3" name="doors" width="20" height="16">
  <data encoding="csv">
0,0,0,0,0,0,0,0,0,0,0,0,0,0,0,0,0,0,0,0,
0,0,0,0,0,0,0,0,0,0,0,0,0,0,0,0,0,0,0,0,
0,0,0,0,0,0,0,0,0,0,0,0,0,0,0,0,0,0,0,0,
0,0,0,0,0,0,0,0,0,0,0,0,0,0,0,0,0,0,0,0,
0,0,0,0,0,0,0,0,0,0,0,0,0,0,0,0,0,0,0,0,
0,0,0,0,0,0,0,0,0,0,0,0,0,0,0,0,0,0,0,0,
0,0,0,22,0,0,0,0,0,0,0,0,0,0,0,0,22,0,0,0,
0,0,0,0,0,0,0,0,0,0,0,0,0,0,0,0,0,0,0,0,
0,0,0,0,0,0,0,0,0,0,0,0,0,0,0,0,0,0,0,0,
0,0,0,22,0,0,0,0,0,0,0,0,0,0,0,0,22,0,0,0,
0,0,0,0,0,0,0,0,0,0,0,0,0,0,0,0,0,0,0,0,
0,0,0,0,0,0,0,0,0,0,0,0,0,0,0,0,0,0,0,0,
0,0,0,0,0,0,0,0,0,0,0,0,0,0,0,0,0,0,0,0,
0,0,0,0,0,0,0,0,0,0,0,0,0,0,0,0,0,0,0,0,
0,0,0,0,0,0,0,0,0,0,0,0,0,0,0,0,0,0,0,0,
0,0,0,0,0,0,0,0,0,0,0,0,0,0,0,0,0,0,0,0
</data>
 </layer>
 <layer id="2" name="walls" width="20" height="16">
  <data encoding="csv">
5,5,8,5,5,8,5,0,0,0,0,0,0,5,5,8,5,5,8,5,
4,0,0,0,0,0,4,0,0,0,0,0,0,4,0,0,0,0,0,4,
16,0,0,0,0,0,4,0,0,0,0,0,0,4,0,0,0,0,0,4,
4,0,0,0,0,0,4,0,0,0,0,0,0,9,0,0,0,0,0,16,
4,0,0,0,0,0,9,0,0,0,0,0,0,4,0,0,0,0,0,4,
4,0,0,0,0,0,4,0,0,0,0,0,0,16,0,0,0,0,0,4,
16,4,7,0,7,4,9,0,0,0,0,0,0,4,4,7,0,7,4,4,
0,0,0,0,0,0,0,0,0,0,0,0,0,0,0,0,0,0,0,0,
0,0,0,0,0,0,0,0,0,0,0,0,0,0,0,0,0,0,0,0,
5,5,6,0,6,8,5,0,0,0,0,0,0,5,5,6,0,6,8,5,
4,0,0,0,0,0,4,0,0,0,0,0,0,4,0,0,0,0,0,4,
4,0,0,0,0,0,4,0,0,0,0,0,0,4,0,0,0,0,0,4,
4,0,0,0,0,0,9,0,0,0,0,0,0,4,0,0,0,0,0,9,
4,0,0,0,0,0,4,0,0,0,0,0,0,4,0,0,0,0,0,4,
9,0,0,0,0,0,4,0,0,0,0,0,0,4,0,0,0,0,0,4,
4,4,4,4,4,4,4,0,0,0,0,0,0,4,4,16,4,4,4,4
</data>
 </layer>
 <layer id="4" name="decorations" width="20" height="16">
  <data encoding="csv">
0,0,0,0,0,0,0,13,0,0,0,0,14,0,0,0,0,0,0,0,
0,26,27,0,0,0,0,0,0,0,0,0,0,0,0,0,0,0,24,0,
0,0,0,0,0,0,0,13,0,0,0,0,14,0,0,0,0,0,0,0,
0,0,0,12,0,0,0,0,0,0,0,0,0,0,0,0,12,0,0,0,
0,0,0,0,0,0,0,13,0,0,0,0,14,0,0,0,0,0,0,0,
0,0,0,0,0,0,0,0,0,0,0,0,0,0,0,0,0,0,0,0,
0,0,0,0,0,0,0,13,0,0,0,0,14,0,0,0,0,0,0,0,
0,0,0,0,0,0,0,0,0,0,0,0,0,0,0,0,0,0,26,0,
0,0,0,0,0,0,0,0,0,0,0,0,0,0,0,0,0,0,0,0,
0,0,0,0,0,0,0,13,0,0,0,0,14,0,0,0,0,0,0,0,
0,0,0,0,0,0,0,0,0,0,0,0,0,0,24,0,0,0,0,0,
0,0,0,0,0,0,0,13,0,0,0,0,14,0,0,0,0,0,0,0,
0,0,0,12,0,0,0,0,0,0,0,0,0,0,0,0,12,0,0,0,
0,0,0,0,0,0,0,13,0,0,0,0,14,0,0,0,0,0,0,0,
0,0,0,24,27,0,0,0,0,0,0,0,0,0,0,0,0,0,0,0,
0,0,0,0,0,0,0,13,0,0,0,0,14,0,0,0,0,0,0,0
</data>
 </layer>
 <objectgroup id="5" name="objects"/>
 <objectgroup id="6" name="player_spawn">
  <object id="1" name="player_spawn" x="318" y="467">
   <point/>
  </object>
 </objectgroup>
 <objectgroup id="7" name="npc_spawn">
  <object id="13" name="rat" x="142" y="47">
   <point/>
  </object>
  <object id="14" name="mummy" x="494" y="48">
   <point/>
  </object>
  <object id="15" name="anubis_guard_light" x="78" y="336">
   <point/>
  </object>
  <object id="16" name="anubis_guard_dark" x="558.85" y="371.239">
   <point/>
  </object>
  <object id="17" name="cobra_boss" x="316" y="257">
   <point/>
  </object>
 </objectgroup>
</map>
